rospo-newyear-dark/symbolic/emotes/face-tired-symbolic.svg

<svg height="16" width="16" xmlns="http://www.w3.org/2000/svg"><path d="m8 1c-3.87 0-7 3.13-7 7 0 3.86 3.13 7 7 7s7-3.14 7-7c0-3.87-3.13-7-7-7zm-1.34 5.37s.43.08.5.63c.06.54-.41 1-.41 1h-.75c0 .55-.45 1-1 1s-1-.45-1-1h-1.25c-.19-.3-.24-.77.09-1.07zm2.62 0h .06l3.82.56c.33.3.28.77.09 1.07h-1.25c0 .55-.45 1-1 1s-1-.45-1-1h-.75s-.47-.46-.41-1c .05-.41.32-.58.44-.63zm-2.78 5.63h3c .28 0 .5.21.5.46v.07c0 .26-.22.47-.5.47h-3c-.28 0-.5-.21-.5-.47v-.07c0-.25.22-.46.5-.46z" fill="#d3dae3"/></svg>

<svg xmlns="http://www.w3.org/2000/svg" width="16" height="16" version="1.1">
 <path style="fill:#d3dae3" d="M 8,1 C 4.13,1 1,4.13 1,8 1,11.86 4.13,15 8,15 11.87,15 15,11.86 15,8 15,4.13 11.87,1 8,1 Z M 6.66,6.37 C 6.66,6.37 7.09,6.45 7.16,7 7.22,7.54 6.75,8 6.75,8 H 6 C 6,8.55 5.55,9 5,9 4.45,9 4,8.55 4,8 H 2.75 C 2.56,7.7 2.51,7.23 2.84,6.93 Z M 9.28,6.37 H 9.34 L 13.16,6.93 C 13.49,7.23 13.44,7.7 13.25,8 H 12 C 12,8.55 11.55,9 11,9 10.45,9 10,8.55 10,8 H 9.25 C 9.25,8 8.78,7.54 8.84,7 8.89,6.59 9.16,6.42 9.28,6.37 Z M 6.5,12 H 9.5 C 9.78,12 10,12.21 10,12.46 V 12.53 C 10,12.79 9.78,13 9.5,13 H 6.5 C 6.22,13 6,12.79 6,12.53 V 12.46 C 6,12.21 6.22,12 6.5,12 Z"/>
</svg>
